X:1
T:Title
%%score { ( 1 4 ) | ( 2 3 ) }
L:1/8
Q:1/4=86
M:2/4
K:Bb
V:1 treble nm="Grand Piano"
V:4 treble 
V:2 bass 
V:3 bass 
V:1
 [DF][Fd] [Fd][DB] | [GB][EG] [DF]2 | [DF][Fd] [Fd][FB] | [Fd]2 [Fc]2 | [DF][Fd] [Fd][DB] | %5
w: C.~R.~Leftwich * * *|||||
 [GB][EG] [DF]2 | [DF][Fd] [Ec][Fd] | [Ec]2 [DB]2 | [Ac]2 [Ac]2 | [Ac]3 [FA] | [=EG][EG] [GB][GB] | %11
w: ||||||
 A2 c2 | [CAc]2 [CAc]2 | [CAc]3 [CFA] | [=EG][GB] [FA][EG] | F4 | [DF][Fd] [Fd][DB] | %17
w: ||||||
 [GB][EG] [DF]2 | [DF][Fd] [Fd][FB] | [Fd]2 [Fc]2 | [DF][Fd] [Fd][DB] | [GB][EG] [DF]2 | %22
w: |||||
 [DF][Fd] [Ec][Fd] |[M:6/4] [Ec]2 .[DB]4 z6 |] %24
w: ||
V:2
 [B,,B,][B,,B,] [B,,B,][B,,B,] | [E,B,][E,B,] [B,,B,]2 | [B,,B,][B,,B,] [B,,B,][D,B,] | %3
 [F,B,]2 [F,A,]2 | [B,,B,][B,,B,] [B,,B,][B,,B,] | [E,B,][E,B,] [B,,B,]2 | %6
 [B,,B,][B,,B,] [B,,B,][B,,B,] | [F,A,]2 [B,,B,]2 | [F,C]2 [F,C]2 | [F,C]3 [F,C] | %10
 [C,C][C,C] [C,C][C,C] | F2 z2 | F,2 F,2 | F,3 F, | [C,C][C,C] [C,C][C,B,] | [F,A,]4 | %16
 [B,,B,][B,,B,] [B,,B,][B,,B,] | [E,B,][E,B,] [B,,B,]2 | [B,,B,][B,,B,] [B,,B,][D,B,] | %19
 [F,B,]2 [F,A,]2 | [B,,B,][B,,B,] [B,,B,][B,,B,] | [E,B,][E,B,] [B,,B,]2 | %22
 [B,,B,][B,,B,] [B,,B,][B,,B,] |[M:6/4] [F,A,]2 .[B,,B,]4 z6 |] %24
V:3
 x4 | x4 | x4 | x4 | x4 | x4 | x4 | x4 | x4 | x4 | x4 | [F,C]2- [F,CA]2 | x4 | x4 | x4 | x4 | x4 | %17
 x4 | x4 | x4 | x4 | x4 | x4 |[M:6/4] x12 |] %24
V:4
 x4 | x4 | x4 | x4 | x4 | x4 | x4 | x4 | x4 | x4 | x4 | x4 | x4 | x4 | x4 | z2 E2 | x4 | x4 | x4 | %19
 x4 | x4 | x4 | x4 |[M:6/4] x12 |] %24

